X: 12708
T: Father Frank From Gorey
R: reel
M: 4/4
K: Dmajor
|:Addd cdeg|fddA F2 A2|Addd cdeg|afdf e2 d2:|
BGGB AFFA|BEEF G2 A2|BcdB AGFE|Ddce d2 d2|
BGGB AFFA||BEEF G2 A2|BGdB A/B/G F/G/E|Ddce d2 d2||

